X:092 
T:June in Dublin* (reel)
F:file ID: cre.5/092june_d
B:CRE5.127 (gan ainm)
M:4/4
Q:180
R:reel
K:G
G2BG DFAc|Bcdg ecAF|G2BG DFAc|BGAF GFED|
G2BG DFAc|Bcdg ecAF|G2BG DFAc|BGFA G2||
GA|Bd~d2 edd2|fgaf gfed|Bd~d2 Bdgd|cBAc BG~G2|
Bd~d2 edd2|fgaf gfed|Bdgd Bdgd|cBAF GFED|]

%%%

